X: 10401
T: SAVIN HILL HORNPIPE
C:
%R: hornpipe, reel
B: Elias Howe "The Musician's Companion" Part 1 1842 p.40 #1
S: http://imslp.org/wiki/The_Musician's_Companion_(Howe,_Elias)
Z: 2015 John Chambers <jc:trillian.mit.edu>
M: C|
L: 1/8
K: F
% - - - - - - - - - - - - - - - - - - - - - - - - -
.c.B |\
AFAc fagf | ebge cBAG | Acfa bgaf | e2c2 cdcB |\
AFAc fagf | eage cBAG | AfdB AcGc | A2F2F2 :|
|: cf |\
afcf c'agf | gceg bgfe | fedc Bagf | e2c2 cdcB |\
AFAc fagf | edcB AGFE | DfdB AcGc | A2F2F2 :|
|: cB |\
ABGA FAcf | efde cega | afga bgaf | e2c2 c2fe |\
dfdf cfBf | dfdf cfBf | AfdB AcGc | A2F2F2 :|
% - - - - - - - - - - - - - - - - - - - - - - - - -


